img/hashtags-2.svg

<svg xmlns="http://www.w3.org/2000/svg" stroke-width=".501" stroke-linejoin="bevel" fill-rule="evenodd" overflow="visible" width="192" height="192" viewBox="0 0 144 144" xmlns:v="https://vecta.io/nano"><style><![CDATA[.B{stroke:none}.C{fill:#000}.D{fill:#0d0d0d}]]></style><g transform="matrix(1 0 0 -1 0 144)" fill="none" stroke="#000"><mask id="A"><path d="M-14.4-14.4h172.8v172.8H-14.4z" class="B D"/></mask><g mask="url(#A)" class="B C"><path d="M83.21 77.439l5.525 20.947H76.873v7.372h13.649l4.411 17.958h-18.06v7.372h19.848L99.874 144h8.94l-3.154-12.912h18.773L127.587 144h9l-3.154-12.912h10.31v-7.372h-12.098l-4.47-17.959h16.568v-7.371h-18.356l-5.185-21.076h-8.939l5.124 21.076H97.674L92.488 77.31l-9.278.129zm34.965 28.318l4.47 17.959h-18.772l-4.411-17.959h18.713z"/></g><mask id="B"><path d="M-14.4-14.4h172.8v172.8H-14.4z" class="B D"/></mask><g mask="url(#B)" class="B C"><path d="M69.833 41.911l2.282 9.274h-4.432v3.244h5.218l1.941 7.901h-7.159v3.244h7.946l2.281 9.339h3.934l-2.282-9.339h8.26l2.282 9.339h3.96l-2.281-9.339h4.536V62.33h-5.323l-1.967-7.902h7.29v-3.243h-8.077l-2.281-9.274h-3.934l2.255 9.274h-8.234l-2.282-9.274h-3.933zm15.236 12.517l1.967 7.902h-8.26l-1.941-7.902h8.234z"/></g><mask id="C"><path fill="#151515" d="M-14.4-14.4h172.8v172.8H-14.4z" class="B"/></mask><g mask="url(#C)" class="B C"><path d="M37.779 92.61l3.112 12.646h-6.043v4.424h7.115l2.646 10.774h-9.761v4.423h10.835l3.111 12.735h5.364l-3.112-12.735h11.263l3.113 12.735h5.4l-3.112-12.735h6.186v-4.423h-7.258l-2.682-10.776h9.94v-4.422H62.882l-3.11-12.646h-5.364l3.074 12.646H46.255L43.142 92.61h-5.363zm20.777 17.068l2.682 10.776H49.975l-2.647-10.776h11.228z"/></g><mask id="D"><path fill="#191919" d="M-14.4-14.4h172.8v172.8H-14.4z" class="B"/></mask><g mask="url(#D)" class="B C"><path d="M97.751 35.01l.954 3.879h-1.854v1.356h2.183l.812 3.304h-2.995v1.357h3.323l.955 3.906h1.645l-.954-3.906h3.455l.955 3.906h1.655l-.954-3.906h1.898v-1.357h-2.227l-.823-3.304h3.05v-1.356h-3.378l-.955-3.879h-1.645l.944 3.879h-3.445l-.955-3.879h-1.644zm6.372 5.235l.823 3.304h-3.455l-.811-3.304h3.443z"/></g><mask id="E"><path d="M-14.4-14.4h172.8v172.8H-14.4z" class="B D"/></mask><g mask="url(#E)" class="B C"><path d="M53.452 70.56l1.245 5.059h-2.418v1.769h2.847l1.059 4.31h-3.906v1.77h4.334l1.245 5.094h2.146l-1.245-5.094h4.507l1.245 5.094h2.159l-1.244-5.094h2.475v-1.77h-2.904l-1.074-4.31h3.978v-1.769h-4.406L62.25 70.56h-2.146l1.231 5.059h-4.493l-1.245-5.059h-2.145zm8.311 6.828l1.074 4.31H58.33l-1.057-4.31h4.49z"/></g><mask id="F"><path d="M-14.4-14.4h172.8v172.8H-14.4z" class="B D"/></mask><g mask="url(#F)" class="B C"><path d="M10.687 105.81l1.868 7.588H8.928v2.654h4.27l1.589 6.464H8.928v2.655h6.501l1.867 7.641h3.219l-1.867-7.641h6.76l1.867 7.641h3.239l-1.866-7.641h3.712v-2.655h-4.356l-1.611-6.464h5.967v-2.654h-6.609l-1.867-7.588h-3.219l1.846 7.588h-6.739l-1.867-7.588h-3.218zm12.466 10.242l1.611 6.464h-6.76l-1.585-6.464h6.734z"/></g><mask id="G"><path fill="#202020" d="M-14.4-14.4h172.8v172.8H-14.4z" class="B"/></mask><g mask="url(#G)" class="B C"><path d="M116.766 52.935l1.608 6.534h-3.123v2.285h3.677l1.368 5.567h-5.045v2.286h5.598l1.608 6.58h2.772l-1.608-6.58h5.821l1.608 6.58h2.789l-1.607-6.58h3.197v-2.286h-3.751l-1.387-5.567h5.138v-2.285h-5.691l-1.608-6.534h-2.772l1.59 6.534h-5.803l-1.608-6.534h-2.771zm10.735 8.819l1.387 5.567h-5.821l-1.366-5.567h5.8z"/></g><mask id="H"><path d="M-14.4-14.4h172.8v172.8H-14.4z" class="B D"/></mask><g mask="url(#H)" class="B C"><path d="M56.768 34.072l.694 2.825h-1.35v.988h1.59l.591 2.406h-2.181v.988h2.42l.696 2.845h1.198l-.695-2.845h2.516l.696 2.845h1.205l-.695-2.845h1.383v-.988h-1.622l-.6-2.406h2.222v-.988h-2.46l-.696-2.825h-1.198l.688 2.825h-2.509l-.696-2.825h-1.197zm4.64 3.813l.6 2.406h-2.516l-.591-2.406h2.507z"/></g><mask id="I"><path d="M-14.4-14.4h172.8v172.8H-14.4z" class="B D"/></mask><g mask="url(#I)" class="B C"><path d="M127.658 24.004l.954 3.879h-1.854v1.356h2.183l.812 3.304h-2.995V33.9h3.323l.955 3.906h1.645l-.954-3.906h3.455l.955 3.906h1.655l-.954-3.906h1.898v-1.357h-2.227l-.823-3.304h3.05v-1.356h-3.378l-.955-3.879h-1.645l.944 3.879h-3.445l-.955-3.879h-1.644zm6.372 5.235l.823 3.304h-3.455l-.811-3.304h3.443z"/></g><mask id="J"><path d="M-14.4-14.4h172.8v172.8H-14.4z" class="B D"/></mask><g mask="url(#J)" class="B C"><path d="M2.151 129.941l.694 2.825h-1.35v.988h1.59l.591 2.406H1.495v.988h2.42l.696 2.845h1.198l-.695-2.845H7.63l.696 2.845h1.205l-.695-2.845h1.383v-.988H8.597l-.6-2.406h2.222v-.988h-2.46l-.696-2.825H5.865l.688 2.825H4.044l-.696-2.825H2.151zm4.64 3.813l.6 2.406H4.875l-.591-2.406h2.507z"/></g><mask id="K"><path d="M-14.4-14.4h172.8v172.8H-14.4z" class="B D"/></mask><g mask="url(#K)" class="B C"><path d="M29.876 71.91l.954 3.879h-1.854v1.356h2.183l.812 3.304h-2.995v1.357h3.323l.955 3.906h1.645l-.954-3.906H37.4l.955 3.906h1.655l-.954-3.906h1.898v-1.357h-2.227l-.823-3.304h3.05v-1.356h-3.378l-.955-3.879h-1.645l.944 3.879h-3.445l-.955-3.879h-1.644zm6.372 5.235l.823 3.304h-3.455l-.811-3.304h3.443z"/></g></g></svg>

<?xml version="1.0" standalone="no"?>
<!DOCTYPE svg PUBLIC "-//W3C//DTD SVG 1.1//EN" "http://www.w3.org/Graphics/SVG/1.1/DTD/svg11.dtd">
<!--Generator: Xara Designer (www.xara.com), SVG filter version: 4.0.0.1-->
<svg stroke-width="0.501" stroke-linejoin="bevel" fill-rule="evenodd" xmlns:xlink="http://www.w3.org/1999/xlink" xmlns="http://www.w3.org/2000/svg" version="1.1" overflow="visible" width="144pt" height="144pt" viewBox="0 0 144 144">
 <defs>
  <marker id="DefaultArrow2" markerUnits="strokeWidth" viewBox="0 0 1 1" markerWidth="1" markerHeight="1" overflow="visible" orient="auto">
   <!-- REF_ARROW_STRAIGHT (-2) -->
   <g transform="scale(0.0092592592)">
    <!-- 1/108 -->
    <path d="M -9 54 L -9 -54 L 117 0 z"/>
   </g>
  </marker>
  <marker id="DefaultArrow3" markerUnits="strokeWidth" viewBox="0 0 1 1" markerWidth="1" markerHeight="1" overflow="visible" orient="auto">
   <!-- REF_ARROW_ANGLED -->
   <g transform="scale(0.0092592592)">
    <path d="M -27 54 L -9 0 L -27 -54 L 135 0 z"/>
   </g>
  </marker>
  <marker id="DefaultArrow4" markerUnits="strokeWidth" viewBox="0 0 1 1" markerWidth="1" markerHeight="1" overflow="visible" orient="auto">
   <!-- REF_ARROW_ROUNDED -->
   <g transform="scale(0.0092592592)">
    <path d="M -9,0 L -9,-45 C -9,-51.708 2.808,-56.580 9,-54 L 117,-9 C 120.916,-7.369 126.000,-4.242 126,0 C 126,4.242 120.916,7.369 117,9 L 9,54 C 2.808,56.580 -9,51.708 -9,45 z"/>
   </g>
  </marker>
  <marker id="DefaultArrow5" markerUnits="strokeWidth" viewBox="0 0 1 1" markerWidth="1" markerHeight="1" overflow="visible" orient="auto">
   <!-- REF_ARROW_SPOT -->
   <g transform="scale(0.0092592592)">
    <path d="M -54, 0 C -54,29.807 -29.807,54 0,54 C 29.807,54 54,29.807 54,0 C 54,-29.807 29.807,-54 0,-54 C -29.807,-54 -54,-29.807 -54,0 z"/>
   </g>
  </marker>
  <marker id="DefaultArrow6" markerUnits="strokeWidth" viewBox="0 0 1 1" markerWidth="1" markerHeight="1" overflow="visible" orient="auto">
   <!-- REF_ARROW_DIAMOND -->
   <g transform="scale(0.0092592592)">
    <path d="M -63,0 L 0,63 L 63,0 L 0,-63 z"/>
   </g>
  </marker>
  <marker id="DefaultArrow7" markerUnits="strokeWidth" viewBox="0 0 1 1" markerWidth="1" markerHeight="1" overflow="visible" orient="auto">
   <!-- REF_ARROW_FEATHER -->
   <g transform="scale(0.0092592592)">
    <path d="M 18,-54 L 108,-54 L 63,0 L 108,54 L 18, 54 L -36,0 z"/>
   </g>
  </marker>
  <marker id="DefaultArrow8" markerUnits="strokeWidth" viewBox="0 0 1 1" markerWidth="1" markerHeight="1" overflow="visible" orient="auto">
   <!-- REF_ARROW_FEATHER2 -->
   <g transform="scale(0.0092592592)">
    <path d="M -36,0 L 18,-54 L 54,-54 L 18,-18 L 27,-18 L 63,-54 L 99,-54 L 63,-18 L 72,-18 L 108,-54 L 144,-54 L 90,0 L 144,54 L 108,54 L 72,18 L 63,18 L 99,54 L 63,54 L 27,18 L 18,18 L 54,54 L 18,54 z"/>
   </g>
  </marker>
  <marker id="DefaultArrow9" markerUnits="strokeWidth" viewBox="0 0 1 1" markerWidth="1" markerHeight="1" overflow="visible" orient="auto">
   <!-- REF_ARROW_HOLLOWDIAMOND -->
   <g transform="scale(0.0092592592)">
    <path d="M 0,45 L -45,0 L 0, -45 L 45, 0 z M 0, 63 L-63, 0 L 0, -63 L 63, 0 z"/>
   </g>
  </marker>
  <filter id="StainedFilter">
   <feBlend mode="multiply" in2="BackgroundImage" in="SourceGraphic" result="blend"/>
   <feComposite in="blend" in2="SourceAlpha" operator="in" result="comp"/>
  </filter>
  <filter id="BleachFilter">
   <feBlend mode="screen" in2="BackgroundImage" in="SourceGraphic" result="blend"/>
   <feComposite in="blend" in2="SourceAlpha" operator="in" result="comp"/>
  </filter>
  <filter id="InvertTransparencyBitmapFilter">
   <feComponentTransfer>
    <feFuncR type="gamma" amplitude="1.055" exponent=".416666666" offset="-0.055"/>
    <feFuncG type="gamma" amplitude="1.055" exponent=".416666666" offset="-0.055"/>
    <feFuncB type="gamma" amplitude="1.055" exponent=".416666666" offset="-0.055"/>
   </feComponentTransfer>
   <feComponentTransfer>
    <feFuncR type="linear" slope="-1" intercept="1"/>
    <feFuncG type="linear" slope="-1" intercept="1"/>
    <feFuncB type="linear" slope="-1" intercept="1"/>
    <feFuncA type="linear" slope="1" intercept="0"/>
   </feComponentTransfer>
   <feComponentTransfer>
    <feFuncR type="gamma" amplitude="1" exponent="2.4" offset="0"/>
    <feFuncG type="gamma" amplitude="1" exponent="2.4" offset="0"/>
    <feFuncB type="gamma" amplitude="1" exponent="2.4" offset="0"/>
   </feComponentTransfer>
  </filter>
 </defs>
 <g id="Document" fill="none" stroke="black" font-family="Times New Roman" font-size="16" transform="scale(1 -1)">
  <g id="Spread" transform="translate(0 -144)">
   <g id="Layer 1">
    <mask id="TranspMask">
     <rect x="-10%" y="-10%" width="120%" height="120%" fill="#0d0d0d" stroke="none"/>
    </mask>
    <g id="Group" stroke="none" mask="url(#TranspMask)">
     <path d="M 148.704,144 L 148.704,77.31 L 85.513,77.31"/>
     <path d="M 83.21,77.439 L 88.735,98.386 L 76.873,98.386 L 76.873,105.758 L 90.522,105.758 L 94.933,123.716 L 76.873,123.716 L 76.873,131.088 L 96.721,131.088 L 99.874,144 L 108.814,144 L 105.66,131.088 L 124.433,131.088 L 127.587,144 L 136.587,144 L 133.433,131.088 L 143.743,131.088 L 143.743,123.716 L 131.645,123.716 L 127.175,105.757 L 143.743,105.757 L 143.743,98.386 L 125.387,98.386 L 120.202,77.31 L 111.263,77.31 L 116.387,98.386 L 97.674,98.386 L 92.488,77.31 L 83.21,77.439 Z M 118.175,105.757 L 122.645,123.716 L 103.873,123.716 L 99.462,105.757 L 118.175,105.757 Z" stroke-width="0.153" fill="#000000" stroke-linejoin="miter" marker-start="none" marker-end="none" stroke-miterlimit="79.8403193612775"/>
    </g>
    <mask id="TranspMask_1">
     <rect x="-10%" y="-10%" width="120%" height="120%" fill="#0d0d0d" stroke="none"/>
    </mask>
    <g id="Group_1" mask="url(#TranspMask_1)">
     <path d="M 65.5,41.911 L 65.5,74.913 L 98.502,74.913 L 98.502,41.911 L 65.5,41.911 Z" stroke="none" marker-start="none" marker-end="none"/>
     <path d="M 69.833,41.911 L 72.115,51.185 L 67.683,51.185 L 67.683,54.429 L 72.901,54.429 L 74.842,62.33 L 67.683,62.33 L 67.683,65.574 L 75.629,65.574 L 77.91,74.913 L 81.844,74.913 L 79.562,65.574 L 87.822,65.574 L 90.104,74.913 L 94.064,74.913 L 91.783,65.574 L 96.319,65.574 L 96.319,62.33 L 90.996,62.33 L 89.029,54.428 L 96.319,54.428 L 96.319,51.185 L 88.242,51.185 L 85.961,41.911 L 82.027,41.911 L 84.282,51.185 L 76.048,51.185 L 73.766,41.911 L 69.833,41.911 Z M 85.069,54.428 L 87.036,62.33 L 78.776,62.33 L 76.835,54.428 L 85.069,54.428 Z" stroke-width="0.067" stroke="none" fill="#000000" stroke-linejoin="miter" marker-start="none" marker-end="none" stroke-miterlimit="79.8403193612775"/>
    </g>
    <mask id="TranspMask_2">
     <rect x="-10%" y="-10%" width="120%" height="120%" fill="#151515" stroke="none"/>
    </mask>
    <g id="Group_2" mask="url(#TranspMask_2)">
     <path d="M 31.871,92.61 L 31.871,137.612 L 76.873,137.612 L 76.873,92.61 L 31.871,92.61 Z" stroke="none" marker-start="none" marker-end="none"/>
     <path d="M 37.779,92.61 L 40.891,105.256 L 34.848,105.256 L 34.848,109.68 L 41.963,109.68 L 44.609,120.454 L 34.848,120.454 L 34.848,124.877 L 45.683,124.877 L 48.794,137.612 L 54.158,137.612 L 51.046,124.877 L 62.309,124.877 L 65.422,137.612 L 70.822,137.612 L 67.71,124.877 L 73.896,124.877 L 73.896,120.454 L 66.638,120.454 L 63.956,109.678 L 73.896,109.678 L 73.896,105.256 L 62.882,105.256 L 59.772,92.61 L 54.408,92.61 L 57.482,105.256 L 46.255,105.256 L 43.142,92.61 L 37.779,92.61 Z M 58.556,109.678 L 61.238,120.454 L 49.975,120.454 L 47.328,109.678 L 58.556,109.678 Z" stroke-width="0.091" stroke="none" fill="#000000" stroke-linejoin="miter" marker-start="none" marker-end="none" stroke-miterlimit="79.8403193612775"/>
    </g>
    <mask id="TranspMask_3">
     <rect x="-10%" y="-10%" width="120%" height="120%" fill="#191919" stroke="none"/>
    </mask>
    <g id="Group_3" mask="url(#TranspMask_3)">
     <path d="M 95.939,35.01 L 95.939,48.812 L 109.741,48.812 L 109.741,35.01 L 95.939,35.01 Z" stroke="none" marker-start="none" marker-end="none"/>
     <path d="M 97.751,35.01 L 98.705,38.889 L 96.851,38.889 L 96.851,40.245 L 99.034,40.245 L 99.846,43.549 L 96.851,43.549 L 96.851,44.906 L 100.174,44.906 L 101.129,48.812 L 102.774,48.812 L 101.82,44.906 L 105.275,44.906 L 106.23,48.812 L 107.885,48.812 L 106.931,44.906 L 108.829,44.906 L 108.829,43.549 L 106.602,43.549 L 105.779,40.245 L 108.829,40.245 L 108.829,38.889 L 105.451,38.889 L 104.496,35.01 L 102.851,35.01 L 103.795,38.889 L 100.35,38.889 L 99.395,35.01 L 97.751,35.01 Z M 104.123,40.245 L 104.946,43.549 L 101.491,43.549 L 100.68,40.245 L 104.123,40.245 Z" stroke-width="0.028" stroke="none" fill="#000000" stroke-linejoin="miter" marker-start="none" marker-end="none" stroke-miterlimit="79.8403193612775"/>
    </g>
    <mask id="TranspMask_4">
     <rect x="-10%" y="-10%" width="120%" height="120%" fill="#0d0d0d" stroke="none"/>
    </mask>
    <g id="Group_4" mask="url(#TranspMask_4)">
     <path d="M 51.089,70.56 L 51.089,88.562 L 69.091,88.562 L 69.091,70.56 L 51.089,70.56 Z" stroke="none" marker-start="none" marker-end="none"/>
     <path d="M 53.452,70.56 L 54.697,75.619 L 52.279,75.619 L 52.279,77.388 L 55.126,77.388 L 56.185,81.698 L 52.279,81.698 L 52.279,83.468 L 56.613,83.468 L 57.858,88.562 L 60.004,88.562 L 58.759,83.468 L 63.266,83.468 L 64.511,88.562 L 66.67,88.562 L 65.426,83.468 L 67.901,83.468 L 67.901,81.698 L 64.997,81.698 L 63.923,77.388 L 67.901,77.388 L 67.901,75.619 L 63.495,75.619 L 62.25,70.56 L 60.104,70.56 L 61.335,75.619 L 56.842,75.619 L 55.597,70.56 L 53.452,70.56 Z M 61.763,77.388 L 62.837,81.698 L 58.33,81.698 L 57.273,77.388 L 61.763,77.388 Z" stroke-width="0.037" stroke="none" fill="#000000" stroke-linejoin="miter" marker-start="none" marker-end="none" stroke-miterlimit="79.8403193612775"/>
    </g>
    <mask id="TranspMask_5">
     <rect x="-10%" y="-10%" width="120%" height="120%" fill="#0d0d0d" stroke="none"/>
    </mask>
    <g id="Group_5" mask="url(#TranspMask_5)">
     <path d="M 7.143,105.81 L 7.143,132.812 L 34.145,132.812 L 34.145,105.81 L 7.143,105.81 Z" stroke="none" marker-start="none" marker-end="none"/>
     <path d="M 10.687,105.81 L 12.555,113.398 L 8.928,113.398 L 8.928,116.052 L 13.198,116.052 L 14.787,122.516 L 8.928,122.516 L 8.928,125.171 L 15.429,125.171 L 17.296,132.812 L 20.515,132.812 L 18.648,125.171 L 25.408,125.171 L 27.275,132.812 L 30.514,132.812 L 28.648,125.171 L 32.36,125.171 L 32.36,122.516 L 28.004,122.516 L 26.393,116.052 L 32.36,116.052 L 32.36,113.398 L 25.751,113.398 L 23.884,105.81 L 20.665,105.81 L 22.511,113.398 L 15.772,113.398 L 13.905,105.81 L 10.687,105.81 Z M 23.153,116.052 L 24.764,122.516 L 18.004,122.516 L 16.419,116.052 L 23.153,116.052 Z" stroke-width="0.055" stroke="none" fill="#000000" stroke-linejoin="miter" marker-start="none" marker-end="none" stroke-miterlimit="79.8403193612775"/>
    </g>
    <mask id="TranspMask_6">
     <rect x="-10%" y="-10%" width="120%" height="120%" fill="#202020" stroke="none"/>
    </mask>
    <g id="Group_6" mask="url(#TranspMask_6)">
     <path d="M 113.714,52.935 L 113.714,76.187 L 136.966,76.187 L 136.966,52.935 L 113.714,52.935 Z" stroke="none" marker-start="none" marker-end="none"/>
     <path d="M 116.766,52.935 L 118.374,59.469 L 115.251,59.469 L 115.251,61.754 L 118.928,61.754 L 120.296,67.321 L 115.251,67.321 L 115.251,69.607 L 120.849,69.607 L 122.457,76.187 L 125.229,76.187 L 123.621,69.607 L 129.442,69.607 L 131.05,76.187 L 133.839,76.187 L 132.232,69.607 L 135.429,69.607 L 135.429,67.321 L 131.678,67.321 L 130.291,61.754 L 135.429,61.754 L 135.429,59.469 L 129.738,59.469 L 128.13,52.935 L 125.358,52.935 L 126.948,59.469 L 121.145,59.469 L 119.537,52.935 L 116.766,52.935 Z M 127.501,61.754 L 128.888,67.321 L 123.067,67.321 L 121.701,61.754 L 127.501,61.754 Z" stroke-width="0.048" stroke="none" fill="#000000" stroke-linejoin="miter" marker-start="none" marker-end="none" stroke-miterlimit="79.8403193612775"/>
    </g>
    <mask id="TranspMask_7">
     <rect x="-10%" y="-10%" width="120%" height="120%" fill="#0d0d0d" stroke="none"/>
    </mask>
    <g id="Group_7" mask="url(#TranspMask_7)">
     <path d="M 55.448,34.072 L 55.448,44.124 L 65.5,44.124 L 65.5,34.072 L 55.448,34.072 Z" stroke="none" marker-start="none" marker-end="none"/>
     <path d="M 56.768,34.072 L 57.462,36.897 L 56.112,36.897 L 56.112,37.885 L 57.702,37.885 L 58.293,40.291 L 56.112,40.291 L 56.112,41.279 L 58.532,41.279 L 59.228,44.124 L 60.426,44.124 L 59.731,41.279 L 62.247,41.279 L 62.943,44.124 L 64.148,44.124 L 63.453,41.279 L 64.836,41.279 L 64.836,40.291 L 63.214,40.291 L 62.614,37.885 L 64.836,37.885 L 64.836,36.897 L 62.376,36.897 L 61.68,34.072 L 60.482,34.072 L 61.17,36.897 L 58.661,36.897 L 57.965,34.072 L 56.768,34.072 Z M 61.408,37.885 L 62.008,40.291 L 59.492,40.291 L 58.901,37.885 L 61.408,37.885 Z" stroke-width="0.02" stroke="none" fill="#000000" stroke-linejoin="miter" marker-start="none" marker-end="none" stroke-miterlimit="79.8403193612775"/>
    </g>
    <mask id="TranspMask_8">
     <rect x="-10%" y="-10%" width="120%" height="120%" fill="#0d0d0d" stroke="none"/>
    </mask>
    <g id="Group_8" mask="url(#TranspMask_8)">
     <path d="M 125.846,24.004 L 125.846,37.806 L 139.648,37.806 L 139.648,24.004 L 125.846,24.004 Z" stroke="none" marker-start="none" marker-end="none"/>
     <path d="M 127.658,24.004 L 128.612,27.883 L 126.758,27.883 L 126.758,29.239 L 128.941,29.239 L 129.753,32.543 L 126.758,32.543 L 126.758,33.9 L 130.081,33.9 L 131.036,37.806 L 132.681,37.806 L 131.727,33.9 L 135.182,33.9 L 136.137,37.806 L 137.792,37.806 L 136.838,33.9 L 138.736,33.9 L 138.736,32.543 L 136.509,32.543 L 135.686,29.239 L 138.736,29.239 L 138.736,27.883 L 135.358,27.883 L 134.403,24.004 L 132.758,24.004 L 133.702,27.883 L 130.257,27.883 L 129.302,24.004 L 127.658,24.004 Z M 134.03,29.239 L 134.853,32.543 L 131.398,32.543 L 130.587,29.239 L 134.03,29.239 Z" stroke-width="0.028" stroke="none" fill="#000000" stroke-linejoin="miter" marker-start="none" marker-end="none" stroke-miterlimit="79.8403193612775"/>
    </g>
    <mask id="TranspMask_9">
     <rect x="-10%" y="-10%" width="120%" height="120%" fill="#0d0d0d" stroke="none"/>
    </mask>
    <g id="Group_9" mask="url(#TranspMask_9)">
     <path d="M 0.831,139.993 L 10.883,139.993 M 10.883,129.941 L 0.831,129.941 L 0.831,139.993" stroke="none"/>
     <path d="M 2.151,129.941 L 2.845,132.766 L 1.495,132.766 L 1.495,133.754 L 3.085,133.754 L 3.676,136.16 L 1.495,136.16 L 1.495,137.148 L 3.915,137.148 L 4.611,139.993 L 5.809,139.993 L 5.114,137.148 L 7.63,137.148 L 8.326,139.993 L 9.531,139.993 L 8.836,137.148 L 10.219,137.148 L 10.219,136.16 L 8.597,136.16 L 7.997,133.754 L 10.219,133.754 L 10.219,132.766 L 7.759,132.766 L 7.063,129.941 L 5.865,129.941 L 6.553,132.766 L 4.044,132.766 L 3.348,129.941 L 2.151,129.941 Z M 6.791,133.754 L 7.391,136.16 L 4.875,136.16 L 4.284,133.754 L 6.791,133.754 Z" stroke-width="0.02" stroke="none" fill="#000000" stroke-linejoin="miter" marker-start="none" marker-end="none" stroke-miterlimit="79.8403193612775"/>
    </g>
    <mask id="TranspMask_10">
     <rect x="-10%" y="-10%" width="120%" height="120%" fill="#0d0d0d" stroke="none"/>
    </mask>
    <g id="Group_10" mask="url(#TranspMask_10)">
     <path d="M 28.064,71.91 L 28.064,85.712 L 41.866,85.712 L 41.866,71.91 L 28.064,71.91 Z" stroke="none" marker-start="none" marker-end="none"/>
     <path d="M 29.876,71.91 L 30.83,75.789 L 28.976,75.789 L 28.976,77.145 L 31.159,77.145 L 31.971,80.449 L 28.976,80.449 L 28.976,81.806 L 32.299,81.806 L 33.254,85.712 L 34.899,85.712 L 33.945,81.806 L 37.4,81.806 L 38.355,85.712 L 40.01,85.712 L 39.056,81.806 L 40.954,81.806 L 40.954,80.449 L 38.727,80.449 L 37.904,77.145 L 40.954,77.145 L 40.954,75.789 L 37.576,75.789 L 36.621,71.91 L 34.976,71.91 L 35.92,75.789 L 32.475,75.789 L 31.52,71.91 L 29.876,71.91 Z M 36.248,77.145 L 37.071,80.449 L 33.616,80.449 L 32.805,77.145 L 36.248,77.145 Z" stroke-width="0.028" stroke="none" fill="#000000" stroke-linejoin="miter" marker-start="none" marker-end="none" stroke-miterlimit="79.8403193612775"/>
    </g>
   </g>
  </g>
 </g>
</svg>
